tools/download-figma-icons/icons/outlined-large/water-tap.svg

<svg width="64" height="64" viewBox="0 0 64 64" fill="none" xmlns="http://www.w3.org/2000/svg">
<path fill-rule="evenodd" clip-rule="evenodd" d="M60.9967 43H44.9792V40H60.9967V43ZM32.035 29.862H42.4765C45.5118 29.862 47.9825 32.33 47.9825 35.362V37H57.9934V32.362C57.9934 25.47 52.3793 19.862 45.4797 19.862H32.035V29.862ZM19.2711 33.5H27.7804C28.4701 33.5 29.0318 32.939 29.0318 32.25V16.862V16.75C29.0318 16.061 28.4701 15.5 27.7804 15.5H19.2711C18.5813 15.5 18.0197 16.061 18.0197 16.75V32.25C18.0197 32.939 18.5813 33.5 19.2711 33.5ZM15.0164 29.5H9.00985V19.5H15.0164V29.5ZM4.50493 35.5C5.33283 35.5 6.00657 34.827 6.00657 34V32.5V16.5V15C6.00657 14.173 5.33283 13.5 4.50493 13.5H3.00328V35.5H4.50493ZM16.2448 3C15.4159 3 14.7431 3.673 14.7431 4.5C14.7431 5.327 15.4159 6 16.2448 6H31.2612C32.0891 6 32.7628 5.327 32.7628 4.5C32.7628 3.673 32.0891 3 31.2612 3H16.2448ZM60.9967 37H61.4392C62.8507 37 64 38.147 64 39.558V43.442C64 44.853 62.8507 46 61.4392 46H44.5347C43.1232 46 41.9759 44.853 41.9759 43.442V39.558C41.9759 38.147 43.1232 37 44.5347 37H44.9792V35.362C44.9792 33.983 43.857 32.862 42.4765 32.862H31.973C31.6736 34.914 29.9167 36.5 27.7804 36.5H19.2711C17.0106 36.5 15.1736 34.726 15.0415 32.5H9.00985V34C9.00985 36.481 6.98864 38.5 4.50493 38.5H1.50164C0.672736 38.5 0 37.828 0 37V12C0 11.172 0.672736 10.5 1.50164 10.5H4.50493C6.98864 10.5 9.00985 12.519 9.00985 15V16.5H15.0415C15.1736 14.274 17.0106 12.5 19.2711 12.5H22.2513V9H16.2448C13.7601 9 11.7398 6.981 11.7398 4.5C11.7398 2.019 13.7601 0 16.2448 0H31.2612C33.7449 0 35.7661 2.019 35.7661 4.5C35.7661 6.981 33.7449 9 31.2612 9H25.2546V12.5H27.7804C30.127 12.5 32.035 14.406 32.035 16.75V16.862H45.4797C54.0361 16.862 60.9967 23.815 60.9967 32.362V37ZM50.0304 58.047C50.0304 59.675 51.3569 61 52.9877 61C54.6174 61 55.9439 59.675 55.9439 58.047C55.9439 57.103 54.5574 54.865 52.9877 52.856C51.4179 54.865 50.0304 57.103 50.0304 58.047ZM51.8574 49.512C52.1427 49.187 52.5542 49 52.9877 49C53.4211 49 53.8326 49.187 54.1179 49.512C54.9248 50.433 58.9472 55.169 58.9472 58.047C58.9472 61.329 56.2733 64 52.9877 64C49.7011 64 47.0271 61.329 47.0271 58.047C47.0271 55.169 51.0505 50.433 51.8574 49.512Z" fill="black"/>
</svg>

<svg width="64" height="64" viewBox="0 0 64 64" fill="none" xmlns="http://www.w3.org/2000/svg"><path fill-rule="evenodd" clip-rule="evenodd" d="M60.997 43H44.979v-3h16.018v3ZM32.035 29.862h10.442a5.51 5.51 0 0 1 5.506 5.5V37h10.01v-4.638c0-6.892-5.614-12.5-12.513-12.5H32.035v10ZM19.271 33.5h8.51c.69 0 1.25-.561 1.25-1.25v-15.5c0-.689-.56-1.25-1.25-1.25h-8.51c-.69 0-1.251.561-1.251 1.25v15.5c0 .689.561 1.25 1.251 1.25Zm-4.255-4H9.01v-10h6.006v10Zm-10.511 6c.828 0 1.502-.673 1.502-1.5V15c0-.827-.674-1.5-1.502-1.5H3.003v22h1.502ZM16.245 3c-.83 0-1.502.673-1.502 1.5S15.416 6 16.245 6H31.26c.828 0 1.502-.673 1.502-1.5S32.089 3 31.26 3H16.245Zm44.752 34h.442A2.562 2.562 0 0 1 64 39.558v3.884A2.562 2.562 0 0 1 61.44 46H44.534a2.56 2.56 0 0 1-2.56-2.558v-3.884A2.56 2.56 0 0 1 44.536 37h.444v-1.638c0-1.379-1.122-2.5-2.502-2.5H31.973c-.3 2.052-2.056 3.638-4.193 3.638h-8.509c-2.26 0-4.097-1.774-4.23-4H9.01V34c0 2.481-2.021 4.5-4.505 4.5H1.502A1.501 1.501 0 0 1 0 37V12c0-.828.673-1.5 1.502-1.5h3.003A4.508 4.508 0 0 1 9.01 15v1.5h6.031c.133-2.226 1.97-4 4.23-4h2.98V9h-6.006a4.507 4.507 0 0 1-4.505-4.5c0-2.481 2.02-4.5 4.505-4.5H31.26a4.508 4.508 0 0 1 4.505 4.5c0 2.481-2.021 4.5-4.505 4.5h-6.006v3.5h2.525a4.256 4.256 0 0 1 4.255 4.25v.112H45.48c8.556 0 15.517 6.953 15.517 15.5V37ZM50.03 58.047A2.959 2.959 0 0 0 52.988 61a2.958 2.958 0 0 0 2.956-2.953c0-.944-1.387-3.182-2.956-5.191-1.57 2.009-2.958 4.247-2.958 5.191Zm1.827-8.535a1.504 1.504 0 0 1 2.26 0c.808.921 4.83 5.657 4.83 8.535 0 3.282-2.674 5.953-5.96 5.953s-5.96-2.671-5.96-5.953c0-2.878 4.023-7.614 4.83-8.535Z" fill="currentColor"/></svg>
